X: 1167
T: An Chearc Is A H-Al
R: reel
M: 4/4
K: Dmajor
~E3 G FD- ~D2|E2 ec dBAF|~E3 G FB,- ~B,2|~D3 E FGAF:|
BcdB ~e3 d|Bcde dBAd|BcdB ~e3 fd|eddB A2 FA|
BcdB ~e3 d|Bcde dBAd|BcdB ~e3 fd|eddB A2 FD||

